icons/repo-pull-16.svg

<svg xmlns="http://www.w3.org/2000/svg" width="16" height="16" viewBox="0 0 16 16"><path d="M11 7h1v6c0 .55-.45 1-1 1H6v2l-1.5-1.5L3 16v-2H1c-.55 0-1-.45-1-1V1c0-.55.45-1 1-1h10c.55 0 1 .45 1 1v2h-1V1H2v9h9zm2 1V6H7V4h6V2l3 3zm-2 3H1v2h2v-1h3v1h5zM4 2v1H3V2zm0 2v1H3V4zm0 2v1H3V6zM3 9V8h1v1z"/></svg>

<svg xmlns="http://www.w3.org/2000/svg" width="16" height="16" viewBox="0 0 16 16">
  <defs/>
  <path d="M11,7 L12,7 L12,13 C12,13.55 11.55,14 11,14 L6,14 L6,16 L4.5,14.5 L3,16 L3,14 L1,14 C0.45,14 0,13.55 0,13 L0,1 C0,0.45 0.45,0 1,0 L11,0 C11.55,0 12,0.45 12,1 L12,3 L11,3 L11,1 L2,1 L2,10 L11,10 Z M13,8 L13,6 L7,6 L7,4 L13,4 L13,2 L16,5 Z M11,11 L1,11 L1,13 L3,13 L3,12 L6,12 L6,13 L11,13 Z M4,2 L4,3 L3,3 L3,2 Z M4,4 L4,5 L3,5 L3,4 Z M4,6 L4,7 L3,7 L3,6 Z M3,9 L3,8 L4,8 L4,9 Z"/>
</svg>
